X:1
T:Les Orientales
T:Les tronçons du serpent
T:A Madame Ch. Lamoureux (BRUNET-LAFLEUR) 
T:Les Orientales
T:4. Les tronçons du serpent
T:Marie Jaëll 
T:Victor Hugo 
T:Creative Commons copyright waiver (CC0 1.0 Universal)
T:Creative Commons copyright waiver (CC0 1.0 Universal)
T:Creative Commons copyright waiver (CC0 1.0 Universal)
T:Creative Commons copyright waiver (CC0 1.0 Universal)
T:Creative Commons copyright waiver (CC0 1.0 Universal)
T:Creative Commons copyright waiver (CC0 1.0 Universal)
T:Creative Commons copyright waiver (CC0 1.0 Universal)
T:Creative Commons copyright waiver (CC0 1.0 Universal)
T:Creative Commons copyright waiver (CC0 1.0 Universal)
T:Creative Commons copyright waiver (CC0 1.0 Universal)
C:Marie Jaëll
Z:Victor Hugo
Z:Creative Commons copyright waiver (CC0 1.0 Universal)
%%score ( 1 2 ) { 3 | 4 }
L:1/8
Q:1/4=172
M:6/8
K:C
V:1 treble nm="Chant\nVoice"
V:2 treble 
V:3 treble nm="Piano"
V:4 bass 
V:1
"^Très vite" z6 | z6 | z6 | z6 | z6 |[M:2/4]"^Voice: local time signature 2/4" z3 z3/2!p! A | %6
w: |||||Je|
 c3 A | A A A A |!<(! E4!<)! |!>(! F2!>)! F3/2 F/ | E4 | z6 | z6 | z6 | z6 | z6 | z6 | z6 | z6 | %19
w: veille, et|nuit et jour mon|front|rêve en- flam-|mé,|||||||||
 z6 |!p! e f (3d c d |!<(! (_B^c d2-)!<)! |!>(! d4!>)! |!p! z6 | z6 | z6 | z6 | z6 | z6 | z6 | z6 | %31
w: |dans la tombe a fer-|mé _ _|_|||||||||
 z6 | z6 | z6 | z6 | z6 | z6 | z6 | z6 | ^G4 | A4 | z6 | z6 | z6 | z6 | z6 | z6 | z6 | z6 | z6 | %50
w: ||||||||sein|nu||||||||||
 z6 | z6 | z6 | z6 |[Q:1/4=114]"^Plus lent" z6 |[M:6/8] z6 | z6 | z6 | z6 | z6 | %60
w: ||||||||||
[M:2/4]"^Voice:  local time signature 2/4" z3 G G | _B2 G E | ^C2 C2 | (3z3!<(! ^c2 d2!<)! | %64
w: Et je|vis sur le|sa- ble|un ser-|
 !>!e4- | (3e2 G2 A2 | F4 | z6 | z6 |[Q:1/4=172]"^Tempo I" z6 | z6 | z6 | z6 | z6 | z6 | z6 | z6 | %77
w: pent|_ jaune et|vert,|||||||||||
 z6 | z6 | z6 | z6 | z6 | _B3 F | G G A A | _B2 z3 | z6 | z6 | z6 | z6 | z6 | z6 | z6 | z6 | z6 | %94
w: |||||mers que|lui je- tait le|vent||||||||||
 z6 | z6 | z6 | z6 | z6 | z6 | z6 | z6 | d3 d |!>(! ^c4!>)! | d2 z3 | z6 | z6 | z6 | z3 F F | %109
w: ||||||||den- te-|é-|e||||Ces tron-|
 G2 G G | A2 z3/2 z3/2 | z6 | z6 | z6 | z6 | z6 | z6 | z6 | z6 | z6 | z6 | %121
w: çons dé- chi-|rés,|||||||||||
 z3[Q:1/4=169]"^retenu" A A |[Q:1/4=166] _B2 G G |[M:6/8][Q:1/4=163] G ^G B d3- | %124
w: se cher-|chaient, com- me|pour un bai- ser|
[Q:1/4=160] d3 z z z |[Q:1/4=157] ^F2 =F F2 F |[Q:1/4=154] z6 |[Q:1/4=151] z6 |[Q:1/4=148] z6 | %129
w: _|fré- mis- san- tes!||||
[Q:1/4=145] z6 |[Q:1/4=172]"^a tempo" z6 | z6 ||[M:2/4] z4 | z4 | z4 | z4 | z4 | z4 | z4 | z4 | %140
w: |||||||||||
 z4 | z4 | z4 | z4 | z4 | z4 | z2 E2 | E4- | E z z z | z4 | z4 | z4 | z4 | z4 | z4 | z4 | z4 | z4 | %158
w: ||||||La|tête|_||||||||||
 (3z2 ^C2 D2 | E2 E2 | z4 | z4 | z4 | z4 | z4 | z4 | z4 | z4 | z4 | z4 | z4 | z4 | z4 | z4 | z4 | %175
w: O po-|è- te!||||||||||||||||
 z4 | z4 | z4 | z4 | z4 | z4 | z4 | z4 | z4 | z A A2- | A A!<(! A A!<)! | %186
w: |||||||||Ta vie|_ et ta pen-|
 (3!>!A !>!A !>!B (3!>!c !>!A !>!B |!>(! c2!>)!!p! z2 | z4 | z4 | z4 | z4 | z4 | z4 | z4 | z4 | %196
w: sée Au- tour d'un sou- ve-|nir,|||||||||
 z4 | z4 | z4 | z4 | z4 | z4 | z4 | z4 | z2 A A | _B2 G E | ^C4 | z4 | z4 | z4 | z4 | z4 | z4 | %213
w: ||||||||Com- me|moi main- te-|nant,|||||||
 z4 | z4 | z4 | z4 | z4 | z4 | z4 | z4 | z4 | z4 | z4 | z4 | z4 | z4 | z4 | z4 | z4 | z4 | z4 |] %232
w: |||||||||||||||||||
V:2
 x6 | x6 | x6 | x6 | x6 |[M:2/4] x11/2 | x4 | x4 | x4 | x4 | x4 | x6 | x6 | x6 | x6 | x6 | x6 | %17
 x6 | x6 | x6 | x4 | x4 | x4 | x6 | x6 | x6 | x6 | x6 | x6 | x6 | x6 | x6 | x6 | x6 | x6 | x6 | %36
 x6 | x6 | x6 | x4 | x4 | x6 | x6 | x6 | x6 | x6 | x6 | x6 | x6 | x6 | x6 | x6 | x6 | x6 | x6 | %55
[M:6/8] x6 | x6 | x6 | x6 | x6 |[M:2/4] x5 | x4 | x4 | x14/3 | x4 | x4 | x4 | x6 | x6 | x6 | x6 | %71
 x6 | x6 | x6 | x6 | x6 | x6 | x6 | x6 | x6 | x6 | x6 | x4 | x4 | x5 | x6 | x6 | x6 | x6 | x6 | %90
 x6 | x6 | x6 | x6 | x6 | x6 | x6 | x6 | x6 | x6 | x6 | x6 | x4 | x4 | x5 | x6 | x6 | x6 | x5 | %109
 x4 | x5 | x6 | x6 | x6 | x6 | x6 | x6 | x6 | x6 | x6 | x6 | x5 | x4 |[M:6/8] x6 | x6 | x6 | x6 | %127
 x6 | x6 | x6 | x6 | x6 ||[M:2/4] x4 | x4 | x4 | x4 | x4 | x4 | x4 | x4 | x4 | x4 | x4 | x4 | x4 | %145
 x4 | x4 | x2"^accel." x2 | x4 | x4 | x4 | x4 | x4 | x4 | x4 | x4 | x4 | x4 | x4 | x4 | x4 | x4 | %162
 x4 | x4 | x4 | x4 | x4 | x4 | x4 | x4 | x4 | x4 | x4 | x4 | x4 | x4 | x4 | x4 | x4 | x4 | x4 | %181
 x4 | x4 | x4 | x4 | x4 | x4 | x4 | x4 | x4 | x4 | x4 | x4 | x4 | x4 | x4 | x4 | x4 | x4 | x4 | %200
 x4 | x4 | x4 | x4 | x4 | x4 | x4 | x4 | x4 | x4 | x4 | x4 | x4 | x4 | x4 | x4 | x4 | x4 | x4 | %219
 x4 | x4 | x4 | x4 | x4 | x4 | x4 | x4 | x4 | x4 | x4 | x4 | x4 |] %232
V:3
 z6 | z6 | z6 | z6 | z6 | z6 | z6 | z6 | z6 | z6 | z6 | z6 | z6 | z6 | z6 | z6 | z6 | z6 | z6 | %19
 z6 | z6 | z6 | z6 | z6 | z6 | z6 | z6 | z6 | z6 | z6 | z6 | z6 | z6 | z6 | z6 | z6 | z6 | z6 | %38
 z6 | z6 | z6 | z6 | z6 | z6 | z6 | z6 | z6 | z6 | z6 | z6 | z6 | z6 | z6 | z6 |"^Plus lent" z6 | %55
[M:6/8]"^Voice & Piano:  general time signature 6/8" z6 | z6 | z6 | z6 | z6 | z6 | z6 | z6 | z6 | %64
 z6 | z6 | z6 | z6 | z6 |"^Tempo I" z6 | z6 | z6 | z6 | z6 | z6 | z6 | z6 | z6 | z6 | z6 | z6 | %81
 z6 | z6 | z6 | z6 | z6 | z6 | z6 | z6 | z6 | z6 | z6 | z6 | z6 | z6 | z6 | z6 | z6 | z6 | z6 | %100
 z6 | z6 | z6 | z6 | z6 | z6 | z6 | z6 | z6 | z6 | z6 | z6 | z6 | z6 | z6 | z6 | z6 | z6 | z6 | %119
 z6 | z6 | A z E"_retenu" FGA | z6 |[M:6/8]"^Voice & Piano:  general time signature 6/8" z6 | z6 | %125
 z6 | z6 | z6 | z6 | z3 z2 z |"^a tempo" z6 | z6 || %132
[M:2/4]"^Voice & Piano:  general time signature 2/4" z4 | z4 | z4 | z4 | z4 | z4 | z4 | z4 | z4 | %141
 z4 | z4 | z4 | z4 | z4 | z4 | z4 | z4 | z4 | z4 | z4 | z4 | z4 | z4 | z4 | z4 | z4 | z4 | z4 | %160
 z4 | z4 | z4 | z4 | z4 | z4 | z4 | z4 | z4 | z4 | z4 | z4 | z4 | z4 | z4 | z4 | z4 | z4 | z4 | %179
 z4 | z4 | z4 | z4 | z4 | z4 | z4 | z4 | z4 | z4 | z4 | z4 | z4 | z4 | z4 | z4 | z4 | z4 | z4 | %198
 z4 | z4 | z4 | z4 | z4 | z4 | z4 | z4 | z4 | z4 | z4 | z4 | z4 | z4 | z4 | z4 | z4 | z4 | z4 | %217
 z4 | z4 | z4 | z4 | z4 | z4 | z4 | z4 | z4 | z4 | z4 | z4 | z4 | z4 | z4 |] %232
V:4
"^General time\nsignature 6/8\n" z6 | z6 | z6 | z6 | z6 | %5
"^Piano:\ngeneral time\nsignature 6/8\n" z6 | z6 | z6 | z6 | z6 | z6 | z6 | z6 | z6 | z6 | z6 | %16
 z6 | z6 | z6 | z6 | z6 | z6 | z6 | z6 | z6 | z6 | z6 | z6 | z6 | z6 | z6 | z6 | z6 | z6 | z6 | %35
 z6 | z6 | z6 | z6 | z6 | z6 | z6 | z6 | z6 | z6 | z6 | z6 | z6 | z6 | z6 | z6 | z6 | z6 | z6 | %54
 z6 |[M:6/8] z6 | z6 | z6 | z6 | z6 |"^Piano:\ngeneral time\nsignature 6/8\n" z6 | z6 | z6 | z6 | %64
 z6 | z6 | z6 | z6 | z6 | z6 | z6 | z6 | z6 | z6 | z6 | z6 | z6 | z6 | z6 | z6 | z6 | z6 | z6 | %83
 z6 | z6 | z6 | z6 | z6 | z6 | z6 | z6 | z6 | z6 | z6 | z6 | z6 | z6 | z6 | z6 | z6 | z6 | z6 | %102
 z6 | z6 | z6 | z6 | z6 | z6 | z6 | z6 | z6 | z6 | z6 | z6 | z6 | z6 | z6 | z6 | z6 | z6 | z6 | %121
 z6 | z6 |[M:6/8] z6 | z6 | z6 | z6 | z6 | z6 | z6 | z6 | z6 ||[M:2/4] z4 | z4 | z4 | z4 | z4 | %137
 z4 | z4 | z4 | z4 | z4 | z4 | z4 | z4 | z4 | z4 | z4 | z4 | z4 | z4 | z4 | z4 | z4 | z4 | z4 | %156
 z4 | z4 | z4 | z4 | z4 | z4 | z4 | z4 | z4 | z4 | z4 | z4 | z4 | z4 | z4 | z4 | z4 | z4 | z4 | %175
 z4 | z4 | z4 | z4 | z4 | z4 | z4 | z4 | z4 | z4 | z4 | z4 | z4 | z4 | z4 | z4 | z4 | z4 | z4 | %194
 z4 | z4 | z4 | z4 | z4 | z4 | z4 | z4 | z4 | z4 | z4 | z4 | z4 | z4 | z4 | z4 | z4 | z4 | z4 | %213
 z4 | z4 | z4 | z4 | z4 | z4 | z4 | z4 | z4 | z4 | z4 | z4 | z4 | z4 | z4 | z4 | z4 | z4 | z4 |] %232

